X: 1
T: The Brown-Sailed Boat
M: 4/4
L: 1/8
R: highland fling / strathspey
K: E Dorian
|: EA | 
B2 BA B2 BA | (3Bcd AB FDFA | 
B2 BA B2 BA | (3Bcd FA BE :|
|: ef | 
gfef gbag | fede fdab |
[1 gfef (3gfe be | Bdfa ge :|
[2 (3gab (3fga (3efe cA | BdAd BE :|
